X: 90
T:Broken Pledge
D:P.McGrattan & OShaunassy
M:C
L:1/8
K:DMix
e| edBA B ~E3| dBAG FDDF| EFGA Beed| B2 Ac efgf|
edBA ~B3 B| dBAG FDDF| EFGA Beed| B2 AF FE E2 :|
|: {f}edBA Bdef| ~g3 e fdB^c| dAFA ~d3 e| f2 eg fdBd|
edBA Bdef| ~g3 e fdBA| G3 A Beed| BdAF FE E2 :|
